src/icons/svg/language.svg

<?xml version="1.0" encoding="UTF-8" standalone="no"?>
<svg width="128px" height="128px" viewBox="0 0 128 128" version="1.1" xmlns="http://www.w3.org/2000/svg" xmlns:xlink="http://www.w3.org/1999/xlink">
    <!-- Generator: Sketch 40 (33762) - http://www.bohemiancoding.com/sketch -->
    <title>language</title>
    <desc>Created with Sketch.</desc>
    <defs></defs>
    <g id="Page-1" stroke="none" stroke-width="1" fill="none" fill-rule="evenodd">
        <g id="language" fill="#000000">
            <g id="Group">
                <path d="M84.7422439,36.8 C87.1399024,44 90.3367805,49.6 95.9313171,55.2 C100.726634,50.4 103.923512,44 106.321171,36.8 L84.7422439,36.8 L84.7422439,36.8 Z M31.9937561,76.8 L52.7734634,76.8 L42.3836098,48.8 L31.9937561,76.8 Z" id="Shape"></path>
                <path d="M111.915707,0 L16.0093659,0 C7.21795122,0 0.0249756098,7.2 0.0249756098,16 L0.0249756098,112 C0.0249756098,120.8 7.21795122,128 16.0093659,128 L111.915707,128 C120.707122,128 127.900098,120.8 127.900098,112 L127.900098,16 C127.900098,7.2 121.506341,0 111.915707,0 L111.915707,0 Z M72.7539512,103.2 C71.1555122,104.8 69.5570732,104.8 67.9586341,104.8 C67.1594146,104.8 65.5609756,104.8 64.7617561,104 C63.9625366,103.2 63.1633171,104 63.1633171,103.2 C63.1633171,102.4 62.3640976,101.6 61.564878,100 C60.7656585,98.4 60.7656585,97.6 59.966439,96 L56.769561,87.2 L28.796878,87.2 L25.6,96 C24.001561,99.2 23.2023415,101.6 22.403122,103.2 C21.6039024,104.8 20.0054634,104.8 17.6078049,104.8 C16.0093659,104.8 14.4109268,104 12.8124878,103.2 C11.2140488,101.6 10.4148293,100.8 10.4148293,99.2 C10.4148293,98.4 10.4148293,97.6 11.2140488,96 C12.0132683,94.4 12.0132683,93.6 12.8124878,92 L30.3953171,47.2 C31.1945366,45.6 31.1945366,44 31.9937561,42.4 C32.7929756,40.8 33.5921951,39.2 34.3914146,38.4 C35.1906341,37.6 35.9898537,36 37.5882927,35.2 C39.1867317,34.4 40.7851707,34.4 42.3836098,34.4 C43.9820488,34.4 45.5804878,34.4 47.1789268,35.2 C48.7773659,36 49.5765854,36.8 50.3758049,38.4 C51.1750244,39.2 51.9742439,40.8 52.7734634,42.4 C53.5726829,44 54.3719024,45.6 55.171122,48 L72.7539512,92 C74.3523902,95.2 75.1516098,97.6 75.1516098,99.2 C74.3523902,100 73.5531707,101.6 72.7539512,103.2 L72.7539512,103.2 Z M116.711024,72 C107.91961,68.8 101.525854,64.8 95.9313171,60 C90.3367805,65.6 83.1438049,69.6 74.3523902,72 L71.9547317,68 C80.7461463,65.6 87.939122,62.4 93.5336585,56.8 C87.939122,51.2 83.1438049,44 81.5453659,36 L73.5531707,36 L73.5531707,32.8 L95.1320976,32.8 C93.5336585,30.4 91.9352195,27.2 90.3367805,24.8 L92.734439,24 C94.332878,26.4 96.7305366,29.6 98.3289756,32.8 L118.309463,32.8 L118.309463,36.8 L110.317268,36.8 C107.91961,44.8 103.923512,52 99.1281951,56.8 C104.722732,61.6 111.116488,65.6 119.907902,68 L116.711024,72 L116.711024,72 Z" id="Shape"></path>
            </g>
        </g>
    </g>
</svg>

<svg width="128" height="128" xmlns="http://www.w3.org/2000/svg"><g fill-rule="evenodd"><path d="M84.742 36.8c2.398 7.2 5.595 12.8 11.19 18.4 4.795-4.8 7.992-11.2 10.39-18.4h-21.58zm-52.748 40h20.78l-10.39-28-10.39 28z"/><path d="M111.916 0H16.009C7.218 0 .025 7.2.025 16v96c0 8.8 7.193 16 15.984 16h95.907c8.791 0 15.984-7.2 15.984-16V16c0-8.8-6.394-16-15.984-16zM72.754 103.2c-1.598 1.6-3.197 1.6-4.795 1.6-.8 0-2.398 0-3.197-.8-.8-.8-1.599 0-1.599-.8s-.799-1.6-1.598-3.2c-.8-1.6-.8-2.4-1.599-4l-3.196-8.8H28.797L25.6 96c-1.598 3.2-2.398 5.6-3.197 7.2-.8 1.6-2.398 1.6-4.795 1.6-1.599 0-3.197-.8-4.796-1.6-1.598-1.6-2.397-2.4-2.397-4 0-.8 0-1.6.799-3.2.8-1.6.8-2.4 1.598-4l17.583-44.8c.8-1.6.8-3.2 1.599-4.8.799-1.6 1.598-3.2 2.397-4 .8-.8 1.599-2.4 3.197-3.2 1.599-.8 3.197-.8 4.796-.8 1.598 0 3.196 0 4.795.8 1.598.8 2.398 1.6 3.197 3.2.799.8 1.598 2.4 2.397 4 .8 1.6 1.599 3.2 2.398 5.6l17.583 44c1.598 3.2 2.398 5.6 2.398 7.2-.8.8-1.599 2.4-2.398 4zM116.711 72c-8.791-3.2-15.185-7.2-20.78-12-5.594 5.6-12.787 9.6-21.579 12l-2.397-4c8.791-2.4 15.984-5.6 21.579-11.2C87.939 51.2 83.144 44 81.545 36h-7.992v-3.2h21.58c-1.6-2.4-3.198-5.6-4.796-8l2.397-.8c1.599 2.4 3.997 5.6 5.595 8.8h19.98v4h-7.992c-2.397 8-6.393 15.2-11.189 20 5.595 4.8 11.988 8.8 20.78 11.2l-3.197 4z"/></g></svg>
